static/img/showcase/fort-major-dao_logo.svg

<svg fill="none" height="500" viewBox="0 0 500 500" width="500" xmlns="http://www.w3.org/2000/svg" xmlns:xlink="http://www.w3.org/1999/xlink"><clipPath id="a"><path d="m63 164h372.72v171.42h-372.72z"/></clipPath><path d="m0 0h500v500h-500z" fill="#0a0b15"/><g clip-path="url(#a)"><path d="m168.1 190 4.29-26h-109.39v171.42h31.06v-68.34h61.32l4.23-25.65h-65.55v-51.43zm236.55-26v28.42h31.07v-28.42zm0 42.19v103.23h-48.87l-4.31 26h84.25v-129.23zm-236.55-16.19 4.29-26zm197.69-26-9.99 60.5-14.02 84.92-4.29 26h-29.91l19.67-117.81h-1.5l-66.95 117.23h-22.21l-27.72-117.46h-1.5l-19.9 118.04h-29.8l7.66-46.18 20.76-125.24h38.08l30.37 124.14h2.07l71.33-124.14z" fill="#fff"/></g></svg>

<svg width="500" height="500" viewBox="0 0 500 500" fill="none" xmlns="http://www.w3.org/2000/svg">
<rect width="500" height="500" fill="#0A0B15"/>
<g clip-path="url(#clip0_130_2849)">
<path d="M168.1 190L172.39 164H63V335.42H94.06V267.08H155.38L159.61 241.43H94.06V190H168.1ZM404.65 164V192.42H435.72V164H404.65ZM404.65 206.19V309.42H355.78L351.47 335.42H435.72V206.19H404.65ZM168.1 190L172.39 164ZM365.79 164L355.8 224.5L341.78 309.42L337.49 335.42H307.58L327.25 217.61H325.75L258.8 334.84H236.59L208.87 217.38H207.37L187.47 335.42H157.67L165.33 289.24L186.09 164H224.17L254.54 288.14H256.61L327.94 164H365.79Z" fill="white"/>
</g>
<defs>
<clipPath id="clip0_130_2849">
<rect width="372.72" height="171.42" fill="white" transform="translate(63 164)"/>
</clipPath>
</defs>
</svg>
